X: 22933
T: Larry Redican's Bow
R: reel
M: 4/4
K: Dmajor
D2FD A,DFD|E2GE B,EGE|FddA BdAF|GEED EGFE|
D2FD A,DFD|E2GE B,EGE|FddA BdAF|1 GECE D3A,:|2 GECE D3A||
|:~B3A ~B3c|dBBA BdcB|A2 (3cBA eAcB|ABce fcec|
~B3A ~B3c|dBBA BFBc|dBcA BAFE|1 FBBA Baec:|2 FBBA BAFE||

